flaticon/security/laptop-1.svg

<svg xmlns="http://www.w3.org/2000/svg" width="32" height="32" viewBox="0 0 24 24">
    <path d="M 23.367188 19.199219 L 22.800781 19.199219 L 22.800781 4.027344 C 22.800781 3.128906 22.070312 2.398438 21.171875 2.398438 L 2.828125 2.398438 C 1.929688 2.398438 1.199219 3.128906 1.199219 4.027344 L 1.199219 19.199219 L 0.632812 19.199219 C 0.28125 19.199219 0 19.484375 0 19.832031 L 0 20.96875 C 0 21.316406 0.28125 21.601562 0.632812 21.601562 L 23.367188 21.601562 C 23.71875 21.601562 24 21.316406 24 20.96875 L 24 19.832031 C 24 19.484375 23.71875 19.199219 23.367188 19.199219 Z M 2 4.027344 C 2 3.570312 2.371094 3.199219 2.828125 3.199219 L 21.171875 3.199219 C 21.628906 3.199219 22 3.570312 22 4.027344 L 22 19.199219 L 14.082031 19.199219 L 13.988281 19.464844 C 13.960938 19.53125 13.894531 19.601562 13.800781 19.601562 L 10.601562 19.601562 C 10.503906 19.601562 10.4375 19.53125 10.414062 19.464844 L 10.320312 19.199219 L 2 19.199219 Z M 23.199219 20.800781 L 0.800781 20.800781 L 0.800781 20 L 9.804688 20 C 9.988281 20.246094 10.28125 20.398438 10.601562 20.398438 L 13.800781 20.398438 C 14.117188 20.398438 14.410156 20.246094 14.597656 20 L 23.199219 20 Z M 23.199219 20.800781"/>
    <path d="M 21.601562 3.601562 L 2.398438 3.601562 L 2.398438 18.800781 L 21.601562 18.800781 Z M 20.800781 18 L 3.199219 18 L 3.199219 4.398438 L 20.800781 4.398438 Z M 20.800781 18"/>
    <path d="M 8.800781 15.601562 L 14.800781 15.601562 C 15.019531 15.601562 15.199219 15.421875 15.199219 15.199219 L 15.199219 10.398438 C 15.199219 10.179688 15.019531 10 14.800781 10 L 14 10 L 14 9 C 14 7.785156 13.011719 6.800781 11.800781 6.800781 C 10.585938 6.800781 9.601562 7.785156 9.601562 9 L 9.601562 10 L 8.800781 10 C 8.578125 10 8.398438 10.179688 8.398438 10.398438 L 8.398438 15.199219 C 8.398438 15.421875 8.578125 15.601562 8.800781 15.601562 Z M 10.398438 9 C 10.398438 8.226562 11.027344 7.601562 11.800781 7.601562 C 12.570312 7.601562 13.199219 8.226562 13.199219 9 L 13.199219 10 L 10.398438 10 Z M 9.199219 10.800781 L 14.398438 10.800781 L 14.398438 14.800781 L 9.199219 14.800781 Z M 9.199219 10.800781"/>
</svg>

<svg xmlns="http://www.w3.org/2000/svg" width="32" height="32" viewBox="0 0 24 24">
    <path d="M23.367 19.2h-.566V4.026a1.63 1.63 0 0 0-1.63-1.629H2.829A1.63 1.63 0 0 0 1.2 4.028v15.171H.633a.633.633 0 0 0-.633.633v1.137c0 .347.281.633.633.633h22.734a.633.633 0 0 0 .633-.633v-1.137a.633.633 0 0 0-.633-.633zM2 4.026c0-.457.371-.828.828-.828h18.344c.457 0 .828.371.828.828V19.2h-7.918l-.094.266c-.027.066-.093.137-.187.137h-3.2a.202.202 0 0 1-.187-.137l-.094-.266H2zm21.2 16.774H.8V20h9.005a.993.993 0 0 0 .797.398H13.8c.316 0 .61-.152.797-.398h8.601zm0 0"/>
    <path d="M21.602 3.602H2.398V18.8h19.204zM20.8 18H3.199V4.398h17.602zm0 0"/>
    <path d="M8.8 15.602h6c.22 0 .4-.18.4-.403v-4.8a.4.4 0 0 0-.4-.399H14V9a2.199 2.199 0 1 0-4.398 0v1H8.8a.401.401 0 0 0-.403.398V15.2c0 .223.18.403.403.403zM10.399 9A1.4 1.4 0 0 1 13.2 9v1h-2.8zM9.2 10.8h5.2v4h-5.2zm0 0"/>
</svg>
